svg/UnitedNations-Flags/flag-sy.svg

<?xml version="1.0" encoding="UTF-8" standalone="no"?>
<svg height="256" id="svg2" inkscape:output_extension="org.inkscape.output.svg.inkscape" inkscape:version="0.46" sodipodi:docname="Flag_of_Syria.svg" sodipodi:version="0.32" version="1.0" width="256" xmlns="http://www.w3.org/2000/svg" xmlns:cc="http://creativecommons.org/ns#" xmlns:dc="http://purl.org/dc/elements/1.1/" xmlns:inkscape="http://www.inkscape.org/namespaces/inkscape" xmlns:rdf="http://www.w3.org/1999/02/22-rdf-syntax-ns#" xmlns:sodipodi="http://sodipodi.sourceforge.net/DTD/sodipodi-0.dtd" xmlns:svg="http://www.w3.org/2000/svg" xmlns:xlink="http://www.w3.org/1999/xlink">
  <metadata>
    <rdf:RDF xmlns:cc="http://web.resource.org/cc/" xmlns:dc="http://purl.org/dc/elements/1.1/" xmlns:rdf="http://www.w3.org/1999/02/22-rdf-syntax-ns#">
      <cc:Work rdf:about="">
        <dc:title></dc:title>
        <dc:description></dc:description>
        <dc:subject>
          <rdf:Bag>
            <rdf:li>unsorted</rdf:li>
          </rdf:Bag>
        </dc:subject>
        <dc:publisher>
          <cc:Agent rdf:about="http://www.openclipart.org/">
            <dc:title>Open Clip Art Library, Source: Wikimedia Commons, Source: Wikimedia Commons, Source: Wikimedia Commons, Source: Wikimedia Commons</dc:title>
          </cc:Agent>
        </dc:publisher>
        <dc:creator>
          <cc:Agent>
            <dc:title></dc:title>
          </cc:Agent>
        </dc:creator>
        <dc:rights>
          <cc:Agent>
            <dc:title></dc:title>
          </cc:Agent>
        </dc:rights>
        <dc:date></dc:date>
        <dc:format>image/svg+xml</dc:format>
        <dc:type rdf:resource="http://purl.org/dc/dcmitype/StillImage"/>
        <cc:license rdf:resource="http://en.wikipedia.org/wiki/Public_domain"/>
        <dc:language>en</dc:language>
      </cc:Work>
    </rdf:RDF>
  </metadata>
  <defs id="defs14">
    <inkscape:perspective id="perspective18" inkscape:persp3d-origin="450 : 200 : 1" inkscape:vp_x="0 : 300 : 1" inkscape:vp_y="0 : 1000 : 0" inkscape:vp_z="900 : 300 : 1" sodipodi:type="inkscape:persp3d"/>
  </defs>
  <sodipodi:namedview bordercolor="#666666" borderopacity="1.0" gridtolerance="10.0" guidetolerance="10.0" id="base" inkscape:current-layer="svg2" inkscape:cx="450" inkscape:cy="300" inkscape:pageopacity="0.0" inkscape:pageshadow="2" inkscape:window-height="703" inkscape:window-width="862" inkscape:window-x="40" inkscape:window-y="230" inkscape:zoom="0.62111111" objecttolerance="10.0" pagecolor="#ffffff" showgrid="false"/>
  <rect height="170.66701" id="rect4" style="fill:#ffffff" width="256" x="0" y="42.333"/>
  <rect height="56.889" id="rect6" style="fill:#ce1126" width="256" x="0" y="42.333"/>
  <path d="M 179.2,109.17757 L 183.3509,121.95455 L 196.78407,121.95313 L 185.91659,129.84874 L 190.06748,142.62431 L 179.2,134.72868 L 168.33252,142.62431 L 172.4837,129.84874 L 161.61593,121.95313 L 175.0491,121.95313 L 179.2,109.17757 z" id="s" style="fill:#009e60"/>
  <use height="600" id="use9" transform="translate(-102.4,0)" width="900" x="0" xlink:href="#s" y="0"/>
  <rect height="56.889" id="rect11" style="fill:#000000" width="256" x="0" y="156.11096"/>
</svg>

<svg xmlns="http://www.w3.org/2000/svg" xmlns:xlink="http://www.w3.org/1999/xlink" viewBox="0 0 256 256"><path fill="#fff" d="m0 42.33h256v170.67h-256z"/><path fill="#ce1126" d="m0 42.33h256v56.889h-256z"/><path d="m179.2 109.18l4.151 12.777 13.433-.0001-10.867 7.896 4.151 12.776-10.867-7.896-10.867 7.896 4.151-12.776-10.868-7.896h13.433l4.151-12.776" id="0" fill="#009e60"/><use height="600" transform="translate(-102.4)" width="900" xlink:href="#0"/><path d="m0 156.11h256v56.889h-256z"/></svg>
